X: 1
T: Spórt
R: jig
M: 6/8
L: 1/8
K: Dmaj
AdF ~A3 | GBE GFG | AdF ~A3 |GBE cde |
AdF ~A3 | GBE GFG |cdc A2G |1 EAA D2F :|2 EAA D2 ||
|:d | ~c3 ~d3 | cec A2g | fed ged | cec A2e |
~f3 ~g3 | age d2e | fdF A2F |GEA D2 :|z |
|:AGG AGE | AGE EDD | AGE cde | dcA ~G3 |
AGG AGE | AGE EDD | cdc A2G | EAA D3 :|


Tune 870	Setting 23013

